X:189
T:Bab in Town
O:No 189 William Clarke of Feltwell
M:6/8
L:1/8
K:D
fddA d2| fddB ce| fddA d2| efed ce:|
dfag f2| dfag fa| bagf g2| efed ce:||

